X:58
T: MEI SCHATZ IS E REITER
N: E1055A
O: Europa, Mitteleuropa, Deutschland, Hessen, Nassau
R: Tanz - Lied, Jodler
M: 3/8
L: 1/16
K: F
F,2 | A,2G,2A,2 | B,2G,2G,A, | B,2A,2B,2 | C4
A,B, | C2C2C2 | D2D2D2 | E2E2E2 | F4

@@@ Tune index: 4742
